X: 627
T: Guanggunr kuqi
%%abc-version 2.0
%%abcx-abcm2ps-target-version 5.9.1 (29 Sep 2008)
%%abc-creator hum2abc beta
%%abcx-conversion-date 2013/10/02 07:52:30
%%abc-edited-by Helmut Schaffrath
%%humdrum-veritas 2867524008
%%humdrum-veritas-data 3966669888
%%continueall 1
%%barnumbers 0
L: 1/8
M: 2/4
K: G
e g e d [I:setbarnb 1]| 
B B B d | 
e g e d | 
B2g2 | 
e2d2 | 
BA2G | 
A4 | 
d3B | 
e g e d | 
d A d B | 
A G E D | 
G2A d | 
B A G E | 
ED2B, | 
D4 |]  



